X: 6060
T: Capers
R: jig
M: 6/8
K: Cmajor
|:Gcc cBc|Gcc e3|Gcc cBc|dAA ABc|
Gcc cBc|Gcc e3|c3 BAB|dcB c3:|
|:ceg geg|agf ede|ceg geg|age d2e|
ceg geg|agf ede|c3 BAB|dcB c3:|

